X:1714
T:The Belles Of Clonallan
M:C|
L:1/8
B:O'Neill's 1714
R:Hornpipe
Z:"Transcribed by Bob Safranek, rjs@gsp.org"
K:D
   DD D2 DFAF | dFAF  dFAF | EE E2 EGBG | eGBG  eGBG   |
   DD D2 DFAF | dFAF  dFAF | Egfg  edce | d2 d2 d2 z2 :|
|: fd d2 fdad | fddf a2 ed | cA A2 cAeA | cAAc  egfe   |
   fd d2 fdad | fddf a2 A2 | Bbag  fedc | d2 d2 d2 z2 :|


